X:1941
T:Farfar Westmans Snoa
R:Snoa
O:Uppland
Z:abc Eva Zwahlen 2011-01-08
M:2/4
L:1/16
K:G
|:D2G2 G3A |B2d2 d4| D2G2 G3B | d2cB c4 | D2F2 F3G | A2B2 c3B | B2A2 B2A2 |1G2F2 E2D2:|2G2G2 G2B2 |:dddd dddd| B2G2 B2d2 |cccc eeee | c2A2 A2B2 | cccc cccc | A2F2 F2A2 | e2d2 d2F2 |1 A2G2 G2B2 :|2 A2G2 G4| 
(:musicend:)
(:music:)
